!!!!SEGMENT: pl-wnifc--13846--001-009_anonim--piesni-polskie-i-ruskie-ludu-galicyjskiego-9-a-kiedy-mysliwy-caly-dzien-poluje.krn
!!!kernsource:
!!!cenid: 18xx:3231
!!!COM: Anonim
!!!COM-rismID: pe30004985
!!!CDT:
!!!CNT:
!!!GTL: Pieśni polskie i ruskie ludu galicyjskiego
!!!OTL: 9. A kiedy myśliwy cały dzień poluje
!!!OMV: 009
!!!PDT: 1833
!!!AGN:
!!!SMS-siglum: PL-Wnifc
!!!SMS-shelfmark: 13846
!!!SMS-shelfwork: 001-009 G
!!!NIFC-rismSourceID: 1001036701
!!!NIFC-rismChildID: 1001036732
!!!NIFC-islandoraID: nifc:210326
!!!URL-pdf-islandora: https://repozytorium.nifc.pl/islandora/object/nifc%3A210326/datastream/PDF/view
!!!URL-scan:
!!!IIIF:
!!!ONB-nifc:
!!!OMD: alla Polacca.
!!!AIN: 1 piano 1 vox
!!!key: B-
**kern	**kern	**dynam	**kern	**text
*part2	*part2	*part2	*part1	*part1
*staff3	*staff2	*	*staff1	*staff1
*I"FORTEPIAN.	*I"FORTEPIAN.	*	*I"GŁOS.	*
*Ipiano	*Ipiano	*	*Ivox	*
*ICklav	*ICklav	*	*ICvox	*
*IGacmp	*IGacmp	*	*IGsolo	*
*clefF4	*clefG2	*	*clefG2	*
*k[b-e-]	*k[b-e-]	*	*k[b-e-]	*
*B-:	*B-:	*	*B-:	*
*M3/4	*M3/4	*	*M3/4	*
=1-	=1-	=1-	=1-	=1-
!	!LO:TX:a:t=C.c. I.:rj	!	!	!
8BB-\L	8ff\L 8dd\	.	8ff\	A
8d\J 8B-\ 8F\	8ff\J 8dd\	.	8ff\	kie-
!LO:TX:t=P:problem=mixed beam	!	!	!	!
8EE-/L	8gg\L 8ee-\	.	8.gg\	-dy
8c\J 8G\ 8E-\	8ee-\ 8g\	.	.	.
.	.	.	16ee-\	my-
!LO:TX:t=P:problem=mixed beam	!	!	!	!
8FF/L	8cc\ 8e-\	.	8cc\	-śli-
8e-\J 8c\	8a\J	.	8a\	-wy
=2	=2	=2	=2	=2
8BB-\L	8b-T\L	.	8b-\	ca-
8B-\J 8F\ 8D\	(<8b-\J	.	8b-\	-ły
.	16qa/LL	.	.	.
.	16qb-/JJ	.	.	.
!LO:TX:t=P:problem=mixed beam	!	!	!	!
8FF/L	8cc\L)	.	8cc\	dzien
8f\J 8A\ 8F\	(<8cc\TJ	.	8cc\	po-
.	16qb-/LL	.	.	.
.	16qcc/JJ)	.	.	.
!!LO:LB:g=original
!LO:TX:t=P:problem=mixed beam	!	!	!	!
8BB-/L	8dd\L	.	8dd\	-lu-
8d\J 8B-\ 8F\	8dd\J	.	8dd\	-je,
=3	=3	=3	=3	=3
!LO:TX:t=P:problem=mixed beam	!	!	!	!
8DD/L	8ff\L 8b-\	.	8ff\	a
8B-\J 8F\ 8D\	8ff\TJ	.	8ff\	gdy
.	(<16qeen/LL	.	.	.
.	16qff/JJ	.	.	.
!LO:TX:t=P:problem=mixed beam	!	!	!	!
8EE-/L	8gg\L)	.	8.gg\	nic
8c\J 8G\ 8E-\	8ee-X\	.	.	.
.	.	.	16ee-\	nie
!LO:TX:t=P:problem=mixed beam	!	!	!	!
8FF/L	8cc\	.	8cc\	znaj-
8e-\J 8c\ 8F\	8a\J	.	8a/	-dzie
=4	=4	=4	=4	=4
!LO:TX:t=P:problem=mixed beam	!	!	!	!
8BB-/L	(>8b-\L	.	8b-/	mo-
8d\J 8B-\ 8F\	8dd\)	.	8dd/	-cno
!LO:TX:t=P:problem=mixed beam	!	!	!	!
8FF/L	8cc\'	.	8cc/	się
8e-\J 8c\ 8F\	8a\'J	.	8a/	fra-
!LO:TX:t=P:problem=mixed beam	!	!	!	!
8BB-/L	4b-\	.	8b-/	-su-
8d\J 8B-\ 8F\	.	.	8b-/	-je
!!LO:LB:g=original
=5|!	=5|!	=5|!	=5|!	=5|!
*	*	*^	*	*
!	!	!LO:DY:t=ff.:rj	!LO:DY:b=2:t=ff.:rj	!	!
16BB-\LL	4ff\ 4dd\ 4b-\	ff	ff	4ff\	cóż
16D\	.	.	.	.	.
16F\	.	.	.	.	.
16B-\JJ	.	.	.	.	.
16BB-\LL	8ff\L 8dd\ 8b-\	.	.	8ff\	to
16D\	.	.	.	.	.
16F\	8bb-\J 8ff\ 8dd\ 8b-\	.	.	8bb-\	jest
16B-\JJ	.	.	.	.	.
16EE-/'LL	8gg\L 8ee-\ 8b-\ 8g\	.	.	8gg\	rze-
16GG/	.	.	.	.	.
16BB-/	8gg\J 8ee-\ 8b-\ 8g\	.	.	8gg\	-cze
16E-/JJ	.	.	.	.	.
*	*	*v	*v	*	*
=6	=6	=6	=6	=6
8E-/L 8BB-/ 8GG/ 8EE-/'	8gg\L 8ee-\ 8b-\ 8g\'	.	8gg\	o
8E-/J 8BB-/ 8GG/ 8EE-/'	8gg\J 8ee-\ 8b-\ 8g\'	.	8gg\	Bo-
8E-/L 8BB-/ 8GG/ 8EE-/'	4gg\ 4ee-\ 4b-\ 4g\'	.	4gg\	-że
8BB-/'	.	.	.	.
8GG/'	4r	.	4r	.
8EE-/'J	.	.	.	.
=7	=7	=7	=7	=7
!	!	!LO:DY:rj:b=2:t=f.	!	!
16BBB-/LL	8ff\L 8dd\ 8b-\ 8f\	f	8ff\	bym
16BB-/	.	.	.	.
16BBB-/	8gg\J 8ee-\ 8b-\ 8g\	.	8gg\	był
16BB-/JJ	.	.	.	.
!!LO:LB:g=original
16BBB-/LL	8ff\L 8dd\ 8b-\ 8f\	.	8ff\	bez
16BB-/	.	.	.	.
16BBB-/	(>8ee-\ 8cc\	.	8ee-\	zwie-
16BB-/JJ	.	.	.	.
16FF/LL	8dd\ 8b-\)	.	8dd\	-rzy-
16F/	.	.	.	.
16FF/	8cc\J 8a\	.	8cc/	-ny
!	!	!LO:DY:t=f.:b=2	!	!
16F/JJ	.	f	.	.
=8	=8	=8	=8	=8
*tremolo	*	*	*	*
(>8BB-\L	8dd/L 8f/	.	8dd\	to
8B-\	8ee-/ 8f/	.	8ee-\	być
8BB-\	8dd/ 8f/	.	8dd\	nie
8B-\)J	8cc/J 8e-/	.	8cc\	mo-
*Xtremolo	*	*	*	*
(>16BB-\LL	8b-/ 8d/	.	8b-\	-że.
16B-\	.	.	.	.
16F\	8r	.	8r	.
16D\JJ)	.	.	.	.
==	==	==	==	==
*-	*-	*-	*-	*-
!!!system-decoration: <s1>{(s2,s3)}
!!!RDF**kern: > = above
!!!RDF**kern: < = below
!!!ENC: Andrzej Kubiczek
!!!END: 2021-11-10
!!!YEC: Copyright 2022 Narodowy Instytut Fryderyka Chopina (https://polishscores.org)
!!!YEM: License CC-BY-4.0 (https://creativecommons.org/licenses/by/4.0)
